X: 132
T: A Chomaraigh Aoibhinn O
R: reel
M: 4/4
K: Bminor
L: 1/4
FA|B2 B>c|B<A AB|d>e fg|f e2 f|f2 ed|B3B|A4-|A2FA|
B2 B>c|B<A AB|d>e fg|f e2 f|f2 ed|e3c/A/|B4-|B2 f2|
af3|f/e/d3|e2 e>f|ed2f|f2 ed|B3 A/F/|A2 A>B|AF2 F/A/|
B2 B>c|B<A AB|d>e fg|f e2 f|f2 ed|e2c2|B4-|B2||

